!!!OTL: Himmelsfreud (2-22) S. 69
!!!id: P0895
**kern
*clefG2
*k[b-]
*f:
{8f
=1
8f
4cc
4b-
4a-
4f
=2
4f
4e-
4e-}
=3
{4e-
=4
4cc
8b-
8b-
4a-
8a-
8g
=5
4f
4f}
4r
=6
{4c
=7
4c
4f
4f
4f
=8
4e
4f
4g}
=9
{4g
=10
4g
4g
4a
4g
=11
2g
4f}
=12
{4c
=13
4c
4f
8f
8f
4f
=14
4e
4f
4g}
=15
{4g
=16
4g
4g
4a
4g
=17
2g
4f}
4r
=18
{4c
4f
4f
4f
=19
4e
4f
4g}
4r
=20
{8cc
8cc
4e
4e
4e
=21
4g
4f
4f}
4r
==
*-
!!!minrhy: 8
!!!meters: 4/4 ]  ZZ[8
!!!cut: Himmelsfreud (2-22) S. 69
!!!reg: Lothringen
!!!trd: PINCK, Louis: Verklingende Weisen, Bd 2, Metz 1928
!!!rhy1:   X_X_X_X_  X_X_X_
!!!rhy2: X_  X_XXX_XX  X_X_0_
!!!key: P0895  08  F 4/4 ]  ZZ[8
!!!mod: ACHTTONSKALA ]  AMBITUS[8
!!!kad: -7b1212121
!!!akz: 53b1-7b_53b1_-51-72_2321_-51-72_2321_-51-72_5-721_
!!!fot: 'a__av_b__as"bv_as"bv_c__
!!!for: 'a__b__av_c__d__cv_av_e__
!!!fok: '\__^a_/__\__/__\__/__\__
!! PHRAS[GEMISCHTTAKTIG]
!!!fkt: geistliche, religiöse Lieder, spöttisch
!! LOTH VKL
!! PR[28] 2K[11] 2G[17] 3K[3] 3G[0] 4A[0] 4Ü[0] 5A[3] 6K[0] 6G[0]
!! 7K[0] 7G[0] 8A[0] MEHR[0] SI[33] ABS[36] SR[28] SP[6]
!! ST[8] 2k[11] 2g[22] 3k[6] 3g[0] 4d[0] 4ü[0] 5d[0] 6k[0] 6g[0]
!! 7k[0] 7g[0] 8d[0] mehr[0] si[39] dm[-6] sr[33] sp[6]
!! 1F[49] 2F[44] 3F[5] 4F[0] LF[0] 2P[3] 3P[0] 4P[0] TRI[0] DF[4] AB[39]
!! TF[0] U3K[0] U3[0] U4[3] U4Ü[0] U5[3] U6K[0] U6[5] U7K[8] U7[5]
!! N1[43] N2K[0] N2[22] N3K[0] N3[5] N4[5] N4Ü[0] N5[0] N6K[0] N6[0]
!!!n7k: 0] N7[0] O1[0] O2K[0] O2[0] O3K[0] O3[0] HÖ[0
